icon-themes/sifr_svg/cmd/lc_snappoints.svg

<svg viewBox="0 0 24 24" xmlns="http://www.w3.org/2000/svg"><path d="m10 1v3h3v-3zm4 0v3h4c1.104569 0 2 .8954305 2 2s-.895431 2-2 2h-4v3h4c2.761424 0 5-2.2385763 5-5s-2.238576-5-5-5zm-4 7v3h3v-3zm-7 6v3h-3v2h3v3h8v-8zm10 0v8h8v-3h3v-2h-3v-3zm-8 2h4v4h-4zm10 0h4v4h-4z" fill="#555753"/></svg>

<svg xmlns="http://www.w3.org/2000/svg" viewBox="0 0 24 24">
  <path
     style="fill:#555753"
     d="M 10 1 L 10 4 L 13 4 L 13 1 L 10 1 z M 14 1 L 14 4 L 18 4 C 19.104569 4 20 4.8954305 20 6 C 20 7.1045695 19.104569 8 18 8 L 14 8 L 14 11 L 18 11 C 20.761424 11 23 8.7614237 23 6 C 23 3.2385763 20.761424 1 18 1 L 14 1 z M 10 8 L 10 11 L 13 11 L 13 8 L 10 8 z M 3 14 L 3 17 L 0 17 L 0 19 L 3 19 L 3 22 L 11 22 L 11 14 L 3 14 z M 13 14 L 13 22 L 21 22 L 21 19 L 24 19 L 24 17 L 21 17 L 21 14 L 13 14 z M 5 16 L 9 16 L 9 20 L 5 20 L 5 16 z M 15 16 L 19 16 L 19 20 L 15 20 L 15 16 z "
     />
</svg>
